X:19184
T:Year of Jubilo
S:Traditional American Tune as played by Tom Keays for Thornden Morris
O:Bampton
M:2/4
L:1/8
K:D
F/2E/2 |: DF FA | Af f/2e/2d/2B/2 | AF/2A/2 dF | E3 F/2E/2 |\
DF FA | Af f/2e/2d/2B/2 | Ad e>c |1 d3 F/2E/2 :|2 d4 |
|: BB Bc | d2 dc/2B/2 | AF/2A/2 dF | E3 F/2E/2 |\
DF FA | Af f/2e/2d/2B/2 | Ad e>c |1 d4 :|2 d3 z |
